assets/images/content/instagram.svg

<svg width="27" height="27" viewBox="0 0 27 27" fill="none" xmlns="http://www.w3.org/2000/svg">
<path d="M21.7926 25.4154H4.64063C2.63764 25.4154 1 23.7418 1 21.695V4.72044C1 2.67354 2.63764 1 4.64063 1H21.7926C23.7956 1 25.4333 2.67354 25.4333 4.72044V21.695C25.4365 23.7418 23.7956 25.4154 21.7926 25.4154Z" stroke="#0b1f35" stroke-width="1.5" stroke-miterlimit="10" stroke-linecap="round" stroke-linejoin="round"/>
<path d="M13.2168 19.2943C16.6912 19.2943 19.5078 16.416 19.5078 12.8654C19.5078 9.31484 16.6912 6.43652 13.2168 6.43652C9.74235 6.43652 6.92578 9.31484 6.92578 12.8654C6.92578 16.416 9.74235 19.2943 13.2168 19.2943Z" stroke="#0b1f35" stroke-width="1.5" stroke-miterlimit="10" stroke-linecap="round" stroke-linejoin="round"/>
<path d="M20.5297 6.76752C20.9155 6.76752 21.2283 6.44787 21.2283 6.05356C21.2283 5.65925 20.9155 5.3396 20.5297 5.3396C20.1438 5.3396 19.8311 5.65925 19.8311 6.05356C19.8311 6.44787 20.1438 6.76752 20.5297 6.76752Z" stroke="#0b1f35" stroke-width="1.5" stroke-miterlimit="10" stroke-linecap="round" stroke-linejoin="round"/>
</svg>

<svg width="27" height="27" fill="none" xmlns="http://www.w3.org/2000/svg"><path d="M21.793 25.415H4.64c-2.002 0-3.64-1.673-3.64-3.72V4.72C1 2.674 2.638 1 4.64 1h17.153c2.003 0 3.64 1.674 3.64 3.72v16.975c.003 2.047-1.637 3.72-3.64 3.72z" stroke="#FFF" stroke-width="1.5" stroke-miterlimit="10" stroke-linecap="round" stroke-linejoin="round"/><path d="M13.217 19.294c3.474 0 6.29-2.878 6.29-6.429 0-3.55-2.816-6.428-6.29-6.428-3.475 0-6.291 2.878-6.291 6.428 0 3.551 2.816 6.43 6.29 6.43zM20.53 6.768c.386 0 .698-.32.698-.714a.706.706 0 00-.698-.714.706.706 0 00-.699.714c0 .394.313.714.699.714z" stroke="#FFF" stroke-width="1.5" stroke-miterlimit="10" stroke-linecap="round" stroke-linejoin="round"/></svg>
